src/icons/svg/LogoRingsIsh.svg

<svg width="17" height="24" viewBox="0 0 17 24" fill="none" xmlns="http://www.w3.org/2000/svg">
<g clip-path="url(#clip0)">
<path d="M10.911 11.361C9.74599 11.361 8.65299 11.677 7.71199 12.225L8.62599 13.432C9.30799 13.068 10.086 12.86 10.912 12.86C13.6 12.86 15.787 15.047 15.787 17.735C15.787 20.423 13.6 22.61 10.912 22.61C8.22399 22.61 6.03699 20.423 6.03699 17.735C6.03699 16.412 6.56799 15.212 7.42699 14.333L6.51399 13.127C5.29699 14.289 4.53699 15.924 4.53699 17.735C4.53699 21.25 7.39699 24.11 10.912 24.11C14.427 24.11 17.287 21.25 17.287 17.735C17.287 14.22 14.427 11.36 10.912 11.36L10.911 11.361Z" fill="#1C2125"/>
<path d="M6.78603 8.73599C6.78603 9.32499 6.58803 9.86799 6.25903 10.306L7.18603 11.53C7.86603 10.794 8.28603 9.81399 8.28603 8.73499C8.28603 7.83699 7.99403 7.00699 7.50503 6.32899L6.40603 7.38099C6.64503 7.77699 6.78603 8.23899 6.78603 8.73499V8.73599Z" fill="#1C2125"/>
<path d="M4.16101 11.361C2.71401 11.361 1.53601 10.183 1.53601 8.73599C1.53601 7.28899 2.71301 6.11099 4.16101 6.11099C4.56601 6.11099 4.95001 6.20599 5.29301 6.37099L6.42301 5.28999C5.77301 4.86199 4.99601 4.61099 4.16101 4.61099C1.88701 4.61099 0.0360107 6.46199 0.0360107 8.73599C0.0360107 11.01 1.88701 12.861 4.16101 12.861C4.81601 12.861 5.43401 12.703 5.98501 12.43L5.05501 11.201C4.77501 11.303 4.47501 11.361 4.16101 11.361Z" fill="#1C2125"/>
<path d="M8.28601 3.11099C8.28601 2.28399 8.95901 1.61099 9.78601 1.61099C10.613 1.61099 11.286 2.28399 11.286 3.11099C11.286 3.93799 10.613 4.61099 9.78601 4.61099C9.64001 4.61099 9.50001 4.58899 9.36601 4.54999L8.20801 5.65799C8.66701 5.94299 9.20701 6.11099 9.78601 6.11099C11.44 6.11099 12.786 4.76499 12.786 3.11099C12.786 1.45699 11.44 0.110992 9.78601 0.110992C8.13201 0.110992 6.78601 1.45699 6.78601 3.11099C6.78601 3.64299 6.92701 4.14199 7.17001 4.57499L8.33001 3.46499C8.30201 3.35099 8.28601 3.23299 8.28601 3.10999V3.11099Z" fill="#1C2125"/>
<path d="M7.18596 11.53C6.84496 11.899 6.43896 12.204 5.98596 12.429L6.51396 13.126C6.87596 12.781 7.27796 12.478 7.71296 12.224L7.18696 11.529L7.18596 11.53Z" fill="#1C2125"/>
<path d="M7.50497 6.33001L8.20797 5.65701C7.77697 5.38901 7.41897 5.01701 7.16997 4.57401L6.42297 5.28901C6.84497 5.56701 7.21097 5.92001 7.50597 6.33001H7.50497Z" fill="#1C2125"/>
<path d="M8.62496 13.433L7.71096 12.226C7.27596 12.479 6.87396 12.782 6.51196 13.128L7.42496 14.334C7.77496 13.976 8.17896 13.671 8.62396 13.433H8.62496Z" fill="#1C2125"/>
<path d="M6.40599 7.38199L7.50499 6.32999C7.20999 5.92099 6.84399 5.56799 6.42199 5.28999L5.29199 6.37099C5.75399 6.59299 6.14099 6.94599 6.40499 7.38199H6.40599Z" fill="#1C2125"/>
<path d="M7.18605 11.53L6.25905 10.306C5.95505 10.711 5.53905 11.024 5.05505 11.2L5.98505 12.429C6.43905 12.204 6.84505 11.898 7.18605 11.53V11.53Z" fill="#1C2125"/>
<path d="M8.20804 5.658L9.36604 4.55C8.85404 4.401 8.45704 3.986 8.33004 3.466L7.17004 4.576C7.41904 5.019 7.77804 5.391 8.20804 5.659V5.658Z" fill="#1C2125"/>
</g>
<defs>
<clipPath id="clip0">
<rect width="17" height="24" fill="white"/>
</clipPath>
</defs>
</svg>

<!-- Generated by IcoMoon.io -->
<svg version="1.1" xmlns="http://www.w3.org/2000/svg" width="17" height="24" viewBox="0 0 17 24">
<title>logo-rings-ish</title>
<path fill="#444" d="M10.911 11.361c-1.165 0-2.258 0.316-3.199 0.864l0.914 1.207c0.682-0.364 1.46-0.572 2.286-0.572 2.688 0 4.875 2.187 4.875 4.875s-2.187 4.875-4.875 4.875c-2.688 0-4.875-2.187-4.875-4.875 0-1.323 0.531-2.523 1.39-3.402l-0.913-1.206c-1.217 1.162-1.977 2.797-1.977 4.608 0 3.515 2.86 6.375 6.375 6.375s6.375-2.86 6.375-6.375c0-3.515-2.86-6.375-6.375-6.375v0z"></path>
<path fill="#444" d="M6.786 8.736c0 0.589-0.198 1.132-0.527 1.57l0.927 1.224c0.68-0.736 1.1-1.716 1.1-2.795 0-0.898-0.292-1.728-0.781-2.406l-1.099 1.052c0.239 0.396 0.38 0.858 0.38 1.354v0z"></path>
<path fill="#444" d="M4.161 11.361c-1.447 0-2.625-1.178-2.625-2.625s1.177-2.625 2.625-2.625c0.405 0 0.789 0.095 1.132 0.26l1.13-1.081c-0.65-0.428-1.427-0.679-2.262-0.679-2.274 0-4.125 1.851-4.125 4.125s1.851 4.125 4.125 4.125c0.655 0 1.273-0.158 1.824-0.431l-0.93-1.229c-0.28 0.102-0.58 0.16-0.894 0.16v0z"></path>
<path fill="#444" d="M8.286 3.111c0-0.827 0.673-1.5 1.5-1.5s1.5 0.673 1.5 1.5c0 0.827-0.673 1.5-1.5 1.5-0.146 0-0.286-0.022-0.42-0.061l-1.158 1.108c0.459 0.285 0.999 0.453 1.578 0.453 1.654 0 3-1.346 3-3s-1.346-3-3-3c-1.654 0-3 1.346-3 3 0 0.532 0.141 1.031 0.384 1.464l1.16-1.11c-0.028-0.114-0.044-0.232-0.044-0.355v0z"></path>
<path fill="#444" d="M7.186 11.53c-0.341 0.369-0.747 0.674-1.2 0.899l0.528 0.697c0.362-0.345 0.764-0.648 1.199-0.902l-0.526-0.695z"></path>
<path fill="#444" d="M7.505 6.33l0.703-0.673c-0.431-0.268-0.789-0.64-1.038-1.083l-0.747 0.715c0.422 0.278 0.788 0.631 1.083 1.041v0z"></path>
<path fill="#444" d="M8.625 13.433l-0.914-1.207c-0.435 0.253-0.837 0.556-1.199 0.902l0.913 1.206c0.35-0.358 0.754-0.663 1.199-0.901v0z"></path>
<path fill="#444" d="M6.406 7.382l1.099-1.052c-0.295-0.409-0.661-0.762-1.083-1.040l-1.13 1.081c0.462 0.222 0.849 0.575 1.113 1.011v0z"></path>
<path fill="#444" d="M7.186 11.53l-0.927-1.224c-0.304 0.405-0.72 0.718-1.204 0.894l0.93 1.229c0.454-0.225 0.86-0.531 1.201-0.899v0z"></path>
<path fill="#444" d="M8.208 5.658l1.158-1.108c-0.512-0.149-0.909-0.564-1.036-1.084l-1.16 1.11c0.249 0.443 0.608 0.815 1.038 1.083v0z"></path>
</svg>
